assets/images/arrow.svg

<svg width="40" height="40" viewBox="0 0 40 40" fill="none" xmlns="http://www.w3.org/2000/svg">
<path d="M18.3 11.75L3.72862 26.75C3.24287 27.25 3 27.75 3 28.5C3 29.25 3.24287 29.75 3.72862 30.25C4.7 31.25 6.15713 31.25 7.12862 30.25L20 17L32.8714 30.25C33.8429 31.25 35.3 31.25 36.2714 30.25C37.2429 29.25 37.2429 27.75 36.2714 26.75L21.7 11.75C20.7286 10.75 19.2714 10.75 18.3 11.75Z" fill="black"/>
</svg>

<svg xmlns="http://www.w3.org/2000/svg" width="40" height="40" fill="none"><path fill="#000" d="m18.3 11.75-14.571 15c-.486.5-.729 1-.729 1.75s.243 1.25.729 1.75c.971 1 2.428 1 3.4 0L20 17l12.871 13.25c.972 1 2.429 1 3.4 0s.972-2.5 0-3.5l-14.571-15c-.971-1-2.429-1-3.4 0"/></svg>
